X:8
T:The Black Dance
%%VWML:RutherfordSelect-4785-p8-0
F:http://www.vwml.org/record/RutherfordSelect/4785/p8
Z:Transcribed by David Jacobs February 2016
S:12 Selected Country Dances 1772, John Rutherford
L:1/8
M:2/4
K:D
V:1     clef=treble
V:2     clef=bass
V:1 
d/B/|GG A/B/c/A/|d/e/d/c/ B(d/B/)|GG A/B/c/A/|d/e/d/c/ B(e/f/)|gg g(f/e/)|dd dB/A/|
GA/B/ cB/A/|GG G(e/f/)|gg g(f/e/)|dd d(B/A/)|G(A/B/) c(B/A/)| GGG:|
V:2
z|G,G,D,D,|G,G, G,2|G,G,D,D,|G,G,G,G,|[G,2G,,2][G,2G,,2]|[G,2G,,2][G,2G,,2]|
G,G,,D,D,,|G,,D,G,2|[G,2G,,2][G,2G,,2]|[G,2G,,2][G,2G,,2]|G,G,,D,D,,|G,,G,,G,,:|
W:
W:Turn right hands and then left
W:Lead your Partner down and bring up the third Wo.
W:Then the first and third Cu. turn right hands & then left.
W:Lead the third Wo. down and your Partner up to cast off.

